X: 1
T: Miter\'itsa mou gliki\'a  (Dm)
O: Greece
F: http://www.youtube.com/watch?v=0XgoZzk7pLY (score)
F: http://www.youtube.com/watch?v=XtPD_555BR4 (floyeri)
F: http://www.youtube.com/watch?v=ENvVsxrEefY (lyra)
M: 2/4
L: 1/16
K: Dm
|: "Dm"F2{G}A2 A2A2 | ABAB ABG2 | "C"F2G2 {A}G2F2 | "Dm"E2D2 TD2z2 :|
|: "C"CDTE2 E2E2 | E2E2 E2z2 | EFG2 G2F2 | "Dm"E2{F}ED TD2D2 :|
